!!!OTL: Jesus Loves Me
!!!COM: Bradbury, William
!!!LYR: Warner, Anna
!!!ODT: unknown
!!!YOR: The Folksong Fake Book
!!!YOY: 2000
!!!AST: Spiritual
!!!YEC: Brian Luke, 2001
**kern	**harm
*k[]	*k[]
*M4/4	*M4/4
*C:	*C:
*>A	*>A
=1	=1
4g	I
4e	.
4e	.
4d	V
=2	=2
4e	I
4g	.
2g	.
=3	=3
4a	IV
4a	.
4b	.
4a	.
=4	=4
4a	I
4g	.
2g	.
=5	=5
4g	.
4e	.
4e	.
4d	V
=6	=6
4e	I
4g	.
2g	.
=7	=7
4a	IV
4a	.
4g	I
4c	.
=8	=8
4e	V7
4d	.
2c	I;
*>B	*>B
=9	=9
2g	I
4e	.
4g	.
=10	=10
4a	IV
2.cc	.
=11	=11
2g	I
4e	.
4c	.
=12	=12
4e	V
2.d	.
=13	=13
2g	I
4e	.
4g	.
=14	=14
4a	IV
2cc	.
4a	.
=15	=15
4g	I
4c	.
4e	V7
4d	.
=16	=16
1c	I;
*-	*-
